X:10766
T:Midsummer's Night
R:reel
C:Peter Broderick
H:
N:
D:Taped @ Milltown
Z:Adrian Scahill
M:4/4
L:1/8
K:G
egdB A3G|EGDG EGD2|eBdB ABcd|eaaf gedg|\
egdB A3G|EGDG EGD2|G3A BGBd|egdB BAA2:||\
G3A BGBd|g3a baa2|b2ag ed (3Bcd|egdB BAFA|\
G3A BGBd|g3a baa2|b2ag ed (3Bcd|egdB BAA2:||
